icon-themes/sifr_svg/cmd/sc_insertmenutitles.svg

<svg viewBox="0 0 16 16" xmlns="http://www.w3.org/2000/svg"><path d="m0 0v2h2v2h-2v2h2v2h-2v2h2v2h-2v2h2v2h2v-2h2v2h2v-2h2v2h2v-2h2v2h2v-4h-12v-12zm7 1v6h8v-6zm2 2h4v2h-4z" fill="#555753"/></svg>

<svg xmlns="http://www.w3.org/2000/svg" viewBox="0 0 16 16">
  <path
     style="fill:#555753"
     d="M 0 0 L 0 2 L 2 2 L 2 4 L 0 4 L 0 6 L 2 6 L 2 8 L 0 8 L 0 10 L 2 10 L 2 12 L 0 12 L 0 14 L 2 14 L 2 16 L 4 16 L 4 14 L 6 14 L 6 16 L 8 16 L 8 14 L 10 14 L 10 16 L 12 16 L 12 14 L 14 14 L 14 16 L 16 16 L 16 12 L 4 12 L 4 0 L 0 0 z M 7 1 L 7 7 L 15 7 L 15 1 L 7 1 z M 9 3 L 13 3 L 13 5 L 9 5 L 9 3 z "
     />
</svg>
